components/2.0/icon/icons/icon-reload-22px.svg

<svg width="22" height="22" xmlns="http://www.w3.org/2000/svg"><path d="M2 12.6V5l2.3 1.7C5.8 4.4 8.3 3 11 3c4.4 0 8 3.6 8 8s-3.6 8-8 8c-2.2 0-4.4-1-6-2.6-.3-.4-.2-1 .2-1.4.4-.4 1-.3 1.4 0 1 1.3 2.7 2 4.4 2 3.3 0 6-2.6 6-6 0-3.2-2.7-6-6-6-2 0-4 1.2-5 3l3.3 2.6-7.3 2z" fill="#3D4752" fill-rule="evenodd"/></svg>

<?xml version="1.0" encoding="UTF-8" standalone="no"?>
<svg width="22px" height="22px" viewBox="0 0 22 22" version="1.1" xmlns="http://www.w3.org/2000/svg" xmlns:xlink="http://www.w3.org/1999/xlink" xmlns:sketch="http://www.bohemiancoding.com/sketch/ns">
    <!-- Generator: Sketch 3.4.4 (17249) - http://www.bohemiancoding.com/sketch -->
    <title>icon-reload-22px</title>
    <desc>Created with Sketch.</desc>
    <defs></defs>
    <g id="22px" stroke="none" stroke-width="1" fill="none" fill-rule="evenodd" sketch:type="MSPage">
        <g id="icon-reload-22px" sketch:type="MSArtboardGroup" fill="#3D4752">
            <path d="M2,12.6 L2,5 L4.3,6.7 C5.8,4.4 8.2,3 11,3 C15.4,3 19,6.6 19,11 C19,15.4 15.4,19 11,19 C8.8,19 6.6,18.1 5.1,16.4 C4.7,16 4.8,15.4 5.2,15 C5.6,14.6 6.2,14.7 6.6,15.1 C7.7,16.3 9.3,17.1 11,17.1 C14.3,17.1 17,14.4 17,11.1 C17,7.8 14.3,5.1 11,5.1 C8.9,5.1 7,6.2 5.9,8 L9.3,10.6 L2,12.6 L2,12.6 Z" id="Shape" sketch:type="MSShapeGroup"></path>
        </g>
    </g>
</svg>
